!!!COM: Vivaldi, Antonio Lucio
!!!CDT: 1678/03/04-1741/08/28
!!!OPR: 12 Sonatas for Violin and Basso continuo
!!!OTL: Sonata in A minor, op. @{OPS}, no. @{ONM} (@{SCT})
!!!OPS: 2
!!!ONM: 12
!!!OMV: 3. [Grave]
!!!SCT: RV 32
!!!SCA: Antonio Vivaldi: Thematisch-systematisches Verzeichnis seiner Werke (Ryom-Verzeichnis)
!!!OMD: Grave
!!!key: a
**kern	**fb	**kern
*part2	*	*part1
*staff2	*	*staff1
*ICklav	*	*ICstr
*Icemba	*	*Ivioln
*I"Basso continuo	*	*I"Violino
*I'bc	*	*I'v
*clefF4	*	*clefG2
*k[]	*	*k[]
*a:	*	*a:
*M3/2	*	*M3/2
*MM122	*	*MM122
=1	=1	=1
2r	.	1.r
2A\	.	.
2B\	6#/	.
=2	=2	=2
2c\	6	2r
2C/	.	2ee\
2c\	6 4#|	2ff#X\
=3	=3	=3
2r	.	2gg\
2B\	6	2g/
2c#X\	5	2gg\
=4	=4	=4
2d\	4	2r
2D\	#	2ff#X\
2d\	4#| 2	2gg#y\
=5	=5	=5
2r	.	2aa\
2c\	6	2a/
2d\	.	2aa\
=6	=6	=6
2e\	.	2r
2E\	.	2.gg\
[2e\	.	.
.	.	4aa\
=7	=7	=7
2e\]	4 2	2.ff\
[1d\	3	.
.	.	(8gg\L
.	.	8aa\
.	.	8gg\
.	.	8ff\
.	.	8ee\
.	.	8dd\J)
=8	=8	=8
2d\]	4 2	2.ee\
[1c\	6	.
.	.	(8ff\L
.	.	8gg\
.	.	8aa\
.	.	8gg\
.	.	8ff\
.	.	8ee\J)
!!LO:LB:g=original
=9	=9	=9
2c\]	4 2	2.dd\
4.B\	.	.
.	.	(8ee\L
8A\	.	8ff\
2G#X\	6	8ee\
.	.	8b\
.	.	8cc\
.	.	8dd\J)
=10	=10	=10
2A\	.	(4.cc\
.	.	8b\)
2AA/	.	2a/
2A\	6	2ff\
=11	=11	=11
2A\	6	(4.ff\
.	5	8ee\
4.B\	#	2dd#X\)
8A\	.	.
2G#X\	6	2ee\
=12	=12	=12
2Gn\	.	(4.ee\
.	.	8dd\
4.A\	#	2cc#X\)
8G\	.	.
2F#X\	6	2dd\
=13	=13	=13
2Fn\	.	(4.dd\
.	.	8cc\
4.G\	.	2b\)
8F\	.	.
2E\	6	[2cc\
=14	=14	=14
2D\	7	2cc\]
1D#X\	6	(4.b\
.	.	8cc\)
.	.	(4.b\
.	5	8a/)
=15	=15	=15
2E\	#	2g#X/
1c\	6	2.ee\
.	.	4a/
=16	=16	=16
2d\	#	2ff#X\
1d#X\	6	2.bb\
.	5	(4aa\
!!LO:LB:g=original
=17	=17	=17
2.e\	#	2.gg#X\)
4dn\	4#| 2	4ee\
2c\	6	(4.aa\
.	.	8gg\)
=18	=18	=18
2.d\	.	2.ff\
4c\	.	4ee\
2B\	6#/	(4.dd\
.	.	8gg#X\)
=19	=19	=19
4c\	6	4aa\
4d\	.	4cc\
2e\	5 4	2.b\t
2E\	#	.
.	.	4a/
=20	=20	=20
2A\	.	1a/
4c\	.	.
4B\	.	.
2A\	.	2ee\
=21	=21	=21
1.D\	5	(4.ff\
.	.	8ee\)
.	.	(4dd\
.	.	4cc\)
.	6	(4b\
.	.	4a/)
=22	=22	=22
1.E\	#	(4.gg#X\
.	.	8ff#X\)
.	.	(4ee\
.	.	4dd\)
.	.	(4cc\
.	.	4b\)
=23	=23	=23
1F\	7	2.a/
.	.	4ff\
2GG#X/	6	(4ee\
.	.	4b\)
=24	=24	=24
2AA/	.	(4cc\
.	.	4a/)
2E\	5 4	2.g#X/t
2EE/	#	.
.	.	4a/
=25	=25	=25
1.AA/;	.	1.a/;
==	==	==
*-	*-	*-
!!!SMS: RV 32 / Estienne Roger, Amsterdam [facs.]
!!!ENC: Fran Bennion; rev. 05/21 E. Correia
!!!END: 2005/01/03
!!!ONB: Converted from MuseData with musedata2hum on Sat May 11 12:07:53 2024
!!!YEM: (C) 2005, 2005 Center for Computer Assisted Research in the Humanities.
!!!system-decoration: [(s1,s2)]
!!!URL-info: https://wiki.ccarh.org/wiki/MuseData:_Antonio_Vivaldi#Op._2:_Sonate_a_violino_e_basso_per_il_cembalo
!!!URL-pdf: https://pdf.musedata.org/vivaldi-op02-no12.pdf#page=4 MuseData edition
!!!URL-pdf: http://conquest.imslp.info/files/imglnks/usimg/b/b7/IMSLP99075-PMLP183164-Vivaldi_-_Sonatas_Op2.pdf#page=46 Estienne Roger Amsterdam: Estienne Roger, No.2, n.d.[1711].
!!!URL-youtube: https://www.youtube.com/watch?v=SiijZmW9jKM&t=4116s L'Arte dell'Arco
!!!title: @{OTL}, mov. @{OMV}
!!!filter-chint: chint -mid
!!!EEV: 2024/05/11
!!!source-file: https://bitbucket.org/musedata/vivaldi/src/master/roger/op2/no12/stage2/03/01
!!!source-file: https://bitbucket.org/musedata/vivaldi/src/master/roger/op2/no12/stage2/03/02
